assets/img/iconos/icono_salud.svg

<?xml version="1.0" encoding="utf-8"?>
<svg width="100px" height="101px" viewbox="0 0 100 101" version="1.1" xmlns:xlink="http://www.w3.org/1999/xlink" xmlns="http://www.w3.org/2000/svg">
  <defs>
    <path d="M0 0L99.6588 0L99.6588 100.018L0 100.018L0 0Z" transform="translate(7.2202165E-05 0.3426405)" id="path_1" />
    <clipPath id="mask_1">
      <use xlink:href="#path_1" />
    </clipPath>
  </defs>
  <g id="icono_salud">
    <g id="Group-3">
      <path d="M0 0L99.6588 0L99.6588 100.018L0 100.018L0 0Z" transform="translate(7.2202165E-05 0.3426405)" id="Clip-2" fill="none" fill-rule="evenodd" stroke="none" />
      <g clip-path="url(#mask_1)">
        <path d="M99.6588 50.0091C99.6588 77.6283 77.3491 100.018 49.8296 100.018C22.3094 100.018 0 77.6283 0 50.0091C0 22.3899 22.3094 0 49.8296 0C77.3491 0 99.6588 22.3899 99.6588 50.0091" transform="translate(7.2202165E-05 0.3426405)" id="Fill-1" fill="#DECCB5" fill-rule="evenodd" stroke="none" />
      </g>
    </g>
    <path d="M15.9617 6.83759L11.4848 6.83759L11.4848 2.34453C11.4848 1.04926 10.439 0 9.14874 0C7.85885 0 6.813 1.04926 6.813 2.34453L6.813 6.83759L2.3361 6.83759C1.04585 6.83759 0 7.88685 0 9.18176C0 10.4763 1.04585 11.5259 2.3361 11.5259L6.813 11.5259L6.813 16.0194C6.813 17.3139 7.85885 18.3635 9.14874 18.3635C10.439 18.3635 11.4848 17.3139 11.4848 16.0194L11.4848 11.5259L15.9617 11.5259C17.2516 11.5259 18.2978 10.4763 18.2978 9.18176C18.2978 7.88685 17.2516 6.83759 15.9617 6.83759" transform="translate(41.18457 49.434296)" id="Fill-4" fill="#FFFFFF" fill-rule="evenodd" stroke="none" />
    <path d="M10.413 11.402C9.0556 11.402 7.95126 10.2933 7.95126 8.93104L7.95126 5.0166C7.95126 3.65394 9.0556 2.54598 10.413 2.54598L28.3791 2.54598C29.7365 2.54598 30.8412 3.65394 30.8412 5.0166L30.8412 8.93104C30.8412 10.2933 29.7365 11.402 28.3791 11.402L10.413 11.402ZM13.8307 16.9896L24.9617 16.9896L24.9617 14.3096L13.8307 14.3096L13.8307 16.9896ZM37.4791 64.7455L37.2336 64.7455C36.3181 64.7455 35.4509 64.5387 34.6751 64.1698C33.7791 65.0151 32.5744 65.5347 31.2502 65.5347L7.54224 65.5347C4.78195 65.5347 2.53646 63.2807 2.53646 60.5108L2.53646 24.5587C2.53646 21.7888 4.78195 19.5349 7.54224 19.5349L11.2942 19.5349L27.4978 19.5349L31.2502 19.5349C34.0101 19.5349 36.2556 21.7888 36.2556 24.5587L36.2556 38.8444C36.574 38.7923 36.9004 38.7636 37.2336 38.7636L37.4791 38.7636C37.9303 38.7636 38.369 38.8151 38.7917 38.9104L38.7917 24.5587C38.7917 20.3852 35.4083 16.9896 31.2502 16.9896L27.4978 16.9896L27.4978 13.9473L28.3791 13.9473C31.135 13.9473 33.3773 11.6969 33.3773 8.93104L33.3773 5.0166C33.3773 2.2507 31.135 0 28.3791 0L10.413 0C7.65704 0 5.4148 2.2507 5.4148 5.0166L5.4148 8.93104C5.4148 11.6969 7.65704 13.9473 10.413 13.9473L11.2942 13.9473L11.2942 16.9896L7.54224 16.9896C3.38339 16.9896 0 20.3852 0 24.5587L0 60.5108C0 64.6847 3.38339 68.0803 7.54224 68.0803L31.2502 68.0803C33.8469 68.0803 36.1415 66.756 37.4982 64.7452C37.4921 64.7452 37.4856 64.7455 37.4791 64.7455L37.4791 64.7455Z" transform="translate(30.9375 16.172058)" id="Fill-6" fill="#FFFFFF" fill-rule="evenodd" stroke="none" />
    <path d="M9.07401 9.54516L9.07401 4.55356C9.07401 2.03838 7.0426 0 4.53718 0C2.03141 0 0 2.03838 0 4.55356L0 9.54516L9.07401 9.54516Z" transform="translate(63.756348 57.3071)" id="Fill-8" fill="#FFFFFF" fill-rule="evenodd" stroke="none" />
    <path d="M0 0L0 5.74775C0 8.26257 2.03141 10.3013 4.53682 10.3013C7.0426 10.3013 9.07401 8.26257 9.07401 5.74775L9.07401 0L0 0Z" transform="translate(63.756836 68.30014)" id="Fill-10" fill="#FFFFFF" fill-rule="evenodd" stroke="none" />
  </g>
</svg>

<svg xmlns="http://www.w3.org/2000/svg" xmlns:xlink="http://www.w3.org/1999/xlink" viewBox="0 0 100 101"><defs><path id="a" d="M0 0h99.659v100.018H0V0z" transform="translate(0 .343)"/><clipPath id="b"><use xlink:href="#a"/></clipPath></defs><path fill="none" fill-rule="evenodd" stroke="none" d="M0 0h99.659v100.018H0V0z" transform="translate(0 .343)"/><g clip-path="url(#b)"><path fill="#DECCB5" fill-rule="evenodd" stroke="none" d="M99.659 50.01c0 27.618-22.31 50.008-49.83 50.008S0 77.628 0 50.009C0 22.39 22.31 0 49.83 0s49.829 22.39 49.829 50.01" transform="translate(0 .343)"/></g><path fill="#FFF" fill-rule="evenodd" stroke="none" d="M15.962 6.838h-4.477V2.345A2.34 2.34 0 0 0 9.149 0a2.34 2.34 0 0 0-2.336 2.345v4.493H2.336A2.34 2.34 0 0 0 0 9.182a2.34 2.34 0 0 0 2.336 2.344h4.477v4.493a2.34 2.34 0 0 0 2.336 2.345 2.34 2.34 0 0 0 2.336-2.345v-4.493h4.477a2.34 2.34 0 0 0 2.336-2.344 2.34 2.34 0 0 0-2.336-2.344" transform="translate(41.185 49.434)"/><path fill="#FFF" fill-rule="evenodd" stroke="none" d="M10.413 11.402a2.47 2.47 0 0 1-2.462-2.471V5.017a2.469 2.469 0 0 1 2.462-2.471h17.966a2.47 2.47 0 0 1 2.462 2.47v3.915a2.47 2.47 0 0 1-2.462 2.471H10.413zm3.418 5.588h11.13v-2.68h-11.13v2.68zm23.648 47.756h-.245a5.941 5.941 0 0 1-2.559-.576 4.977 4.977 0 0 1-3.425 1.365H7.542c-2.76 0-5.006-2.254-5.006-5.024V24.559c0-2.77 2.246-5.024 5.006-5.024H31.25c2.76 0 5.006 2.254 5.006 5.024v14.285a6.05 6.05 0 0 1 .978-.08h.245c.451 0 .89.051 1.313.146V24.56c0-4.174-3.384-7.57-7.542-7.57h-3.752v-3.042h.881c2.756 0 4.998-2.25 4.998-5.016V5.017C33.377 2.25 31.135 0 28.38 0H10.413C7.657 0 5.415 2.25 5.415 5.017V8.93c0 2.766 2.242 5.016 4.998 5.016h.881v3.043H7.542C3.383 16.99 0 20.385 0 24.559V60.51c0 4.174 3.383 7.57 7.542 7.57H31.25a7.532 7.532 0 0 0 6.248-3.336h-.019z" transform="translate(30.938 16.172)"/><path fill="#FFF" fill-rule="evenodd" stroke="none" d="M9.074 9.545V4.554C9.074 2.038 7.043 0 4.537 0S0 2.038 0 4.554v4.991h9.074z" transform="translate(63.756 57.307)"/><path fill="#FFF" fill-rule="evenodd" stroke="none" d="M0 0v5.748C0 8.263 2.031 10.3 4.537 10.3s4.537-2.038 4.537-4.553V0H0z" transform="translate(63.757 68.3)"/></svg>
